X: 18226
T: Humours Of Kiltyclogher, The
R: jig
M: 6/8
K: Adorian
|:AGE ~G2E|c2E EFG|~D3 D2E|GED D2B|
AGE ~G2E|c2E EFG|~A3 BGE|~A3 A2B:|
|:c2B c2d|ecA ABc|BAG GA/B/c|dBG GAB|
c2B c2d|ecA ABc|BAG GAB|~A3 A2B:|

